X:128
T:The Brown Coffin                                                                                  
M:4/4                                                                                               
L:1/8                                                                                               
K:Gm                                                                                                
dc|:BAGF GABc|d2 GF Gbag|f2 dc BcdB|cBAG F2 dc|                                                     
BAGF GABc|d2 gf g3 d|edcB cedc|1 B2 G2 G2 dc :|2 B2 G2 G2 z2 ||                                     
bgdB gdBG|DGBd gabg|afcA fcAF|CFAc fcAc|                                                            
BAGF GABc|d(g g)f g2 z d|edcB cedc|1 B2 G2 G2 z2 :|2 B2 G2 G2 dc ||
